!!!COM: Corelli, Arcangelo
!!!OPR: Sonata da camera
!!!OPS: 4
!!!ONM: 6
!!!OMV: 6
!!!OTL: Allemanda
!!!OMD: Allegro
**kern	**fb	**kern	**kern	**kern
*part4	*part4	*part3	*part2	*part1
*staff4	*	*staff3	*staff2	*staff1
*clefF4	*	*clefF4	*clefG2	*clefG2
*k[f#c#g#]	*	*k[f#c#g#]	*k[f#c#g#]	*k[f#c#g#]
*A:	*	*A:	*A:	*A:
*M4/4	*	*M4/4	*M4/4	*M4/4
*met(c)	*	*met(c)	*met(c)	*met(c)
=1	=1	=1	=1	=1
1r	.	1r	1r	4.ee
.	.	.	.	16r
.	.	.	.	16ff#
.	.	.	.	8.gg#L
.	.	.	.	16gg#Jk
.	.	.	.	8.ff#L
.	.	.	.	16eeJk
=	=	=	=	=
1r	.	1r	4.b	4.dd#X
.	.	.	16r	16r
.	.	.	16cc#	16ee
.	.	.	8.dd#XL	8.ff#L
.	.	.	16dd#Jk	16ff#Jk
.	.	.	8.cc#L	8.eeL
.	.	.	16bJk	16dd#Jk
=	=	=	=	=
4.E	.	4.E	2ee	4.gg#
16r	.	16r	.	16r
16F#	.	16F#	.	16aa
8.G#L	6	8.G#L	4.ee	8.bbL
16G#Jk	.	16G#Jk	.	16bbJk
8.F#L	.	8.F#L	.	8.aaL
.	.	.	16r	.
16EJk	.	16EJk	16ee	16gg#Jk
=	=	=	=	=
4.B	#	4.B	4dd#X	4.ff#
.	.	.	2b	.
16r	.	16r	.	16r
16B	.	16B	.	16dd#X
4c#	7	4c#	.	8.eeL
.	.	.	.	16eeJk
4d#X	5	4d#X	[4a	8.ff#L
.	.	.	.	16ff#Jk
=	=	=	=	=
2e	5 4	2e	4a]	4b
.	3	.	4g#	2ee
2B	5 4	2B	4f#	.
.	#	.	[4ff#	4dd#X
=	=	=	=	=
2E	9 5	2E	8.ff#L]	4g#
.	.	.	16bJk	.
.	8 6	.	8.eeL	8.cc#L
.	.	.	16eeJk	16bJk
4.F#	7 #	4.F#	4.ee	4.a#X
16r	.	16r	16r	16r
16D#X	6	16D#X	16dd#X	16ff#
=	=	=	=	=
4.E	9 #7\	4.E	8.dd#XL	8.ff#L
.	.	.	16g#Jk	16bJk
.	8 6	.	8.cc#L	8.eeL
16r	.	16r	.	.
16E	.	16E	16bJk	16eeJk
4F#	7 #	4F#	8.a#XL	8.eeL
.	.	.	16f#Jk	16ff#Jk
4BB	#	4BB	8.bL	8.dd#XL
.	.	.	16bJk	16cc#Jk
=	=	=	=	=
4F#	#6\ 4	4F#	4.b	4dd#X
4FF#	#	4FF#	.	4cc#
.	.	.	8a#X	.
2BB	5 #	2BB	2b	2b
=:|!|:	=:|!|:	=:|!|:	=:|!|:	=:|!|:
2r	.	2r	1r	4.ff#
.	.	.	.	16r
.	.	.	.	16ee
4.B	#	4.B	.	8.dd#XL
.	.	.	.	16bJk
.	.	.	.	8.cc#L
16r	.	16r	.	.
16A	.	16A	.	16dd#Jk
=	=	=	=	=
8.G#L	6	8.G#L	4.b	4.ee
16EJk	.	16EJk	.	.
8.F#L	.	8.F#L	.	.
.	.	.	16r	16r
16G#Jk	.	16G#Jk	16b	16dd#X
2A	.	2A	2e	8.cc#L
.	.	.	.	16cc#Jk
.	.	.	.	8.dd#L
.	.	.	.	16eeJk
=	=	=	=	=
2A#X	6	2A#X	4.cc#	4.ff#
.	.	.	16r	16r
.	.	.	16cc#	16ee
2B	#	2B	2f#	8.dd#XL
.	.	.	.	16dd#Jk
.	.	.	.	8.eeL
.	.	.	.	16ff#Jk
=	=	=	=	=
2B#X	6	2B#X	4.dd#X	4.gg#
.	.	.	16r	16r
.	.	.	16dd#	16ff#
2c#	.	2c#	8.g#L	8.eeL
.	.	.	16gg#Jk	16eeJk
.	.	.	8.ff#L	8.dd#XL
.	.	.	16eeJk	16cc#Jk
=	=	=	=	=
2G#	6 4	2G#	4ee	4cc#
.	#5\ #	.	4dd#X	4b#X
2A	.	2A	2cc#	2cc#
=	=	=	=	=
2D#X	6	2D#X	2ff#	4.bni
.	.	.	.	16r
.	.	.	.	16a
4E	.	4E	4.b	8.g#L
.	.	.	.	16a#XJk
4D#	6	4D#	.	8.bL
.	.	.	16r	.
.	.	.	16ff#	16bJk
=	=	=	=	=
4C#	7	4C#	2ee	4.b
4F#	7 #	4F#	.	.
.	.	.	.	8a#X
4BB	#	4BB	2dd#X	[2b
4AA	4 2	4AA	.	.
=	=	=	=	=
2GG#	6	2GG#	2b	8.bL]
.	.	.	.	16cc#Jk
.	-r5	.	.	8.ddL
.	.	.	.	16ddJk
2AA	5 4	2AA	2e	(4dd
.	3	.	.	4cc#
=	=	=	=	=
2AA#X	6 5	2AA#X	2cc#	8.cc#L)
.	.	.	.	16dd#XJk
.	.	.	.	8.eeL
.	.	.	.	16eeJk
2BB	5 4	2BB	2f#	(4ee
.	#	.	.	4dd#
=	=	=	=	=
2BB#X	6 5	2BB#X	2dd#X	8.dd#XL)
.	.	.	.	16eeJk
.	.	.	.	8.ff#L
.	.	.	.	16ff#Jk
2C#	5 4	2C#	2g#	(4ff#
.	3	.	.	4ee)
=	=	=	=	=
4.AA	.	4.AA	8.cc#L	8.aaL
.	.	.	16bJk	16gg#Jk
.	.	.	8.aL	8.ff#L
8AA	.	8AA	.	.
.	.	.	16aJk	16eeJk
4BBni	7 #	4BBni	4a	8.dd#XL
.	.	.	.	16bJk
4EE	.	4EE	8g#L	8.eeL
.	.	.	8f#J	.
.	.	.	.	16eeJk
=	=	=	=	=
2BB	6 4	2BB	4g#	4.ee
.	5 #	.	8.f#L	.
.	.	.	.	8dd#X
.	.	.	16bJk	.
2E	.	2E	2g#	4ee
.	.	.	.	[4b
=	=	=	=	=
2GG#	6 -r5	2GG#	2b	8.bL]
.	.	.	.	16cc#Jk
.	.	.	.	8.ddniL
.	.	.	.	16ddJk
2AA	5 4	2AA	2e	(4dd
.	3	.	.	4cc#
=	=	=	=	=
2AA#X	6 5	2AA#X	2cc#	8.cc#L)
.	.	.	.	16dd#XJk
.	.	.	.	8.eeL
.	.	.	.	16eeJk
2BB	5 4	2BB	2f#	(4ee
.	#	.	.	4dd#
=	=	=	=	=
2BB#X	6 5	2BB#X	2dd#X	8.dd#XL)
.	.	.	.	16eeJk
.	.	.	.	8.ff#L
.	.	.	.	16ff#Jk
2C#	5 4	2C#	2g#	(4ff#
.	3	.	.	4ee)
=	=	=	=	=
4.AA	.	4.AA	8.cc#L	8.aaL
.	.	.	16bJk	16gg#Jk
.	.	.	8.aL	8.ff#L
8AA	.	8AA	.	.
.	.	.	16aJk	16eeJk
4BBni	7 #	4BBni	4a	8.dd#XL
.	.	.	.	16bJk
4EE	.	4EE	8g#L	8.eeL
.	.	.	8f#J	.
.	.	.	.	16eeJk
=	=	=	=	=
2BB	6 4	2BB	4g#	4.ee
.	5 #	.	8.f#L	.
.	.	.	.	8dd#X
.	.	.	16bJk	.
2EE	.	2EE	2g#	2ee
=:|!	=:|!	=:|!	=:|!	=:|!
*-	*-	*-	*-	*-
!!!system-decoration: [{s1,s2},s3,s4]
!!!YEM: CC BY-NC-SA 4.0; CCARH; DCML
!!!RDF**kern: i = editorial accidental